src/assets/icons/close.svg

<svg class="icon icon-cross">
<use xlink:href="#icon-cross"></use>
<symbol id="icon-cross" viewBox="0 0 32 32">
<title>cross</title>
<path d="M31.708 25.708c-0-0-0-0-0-0l-9.708-9.708 9.708-9.708c0-0 0-0 0-0 0.105-0.105 0.18-0.227 0.229-0.357 0.133-0.356 0.057-0.771-0.229-1.057l-4.586-4.586c-0.286-0.286-0.702-0.361-1.057-0.229-0.13 0.048-0.252 0.124-0.357 0.228 0 0-0 0-0 0l-9.708 9.708-9.708-9.708c-0-0-0-0-0-0-0.105-0.104-0.227-0.18-0.357-0.228-0.356-0.133-0.771-0.057-1.057 0.229l-4.586 4.586c-0.286 0.286-0.361 0.702-0.229 1.057 0.049 0.13 0.124 0.252 0.229 0.357 0 0 0 0 0 0l9.708 9.708-9.708 9.708c-0 0-0 0-0 0-0.104 0.105-0.18 0.227-0.229 0.357-0.133 0.355-0.057 0.771 0.229 1.057l4.586 4.586c0.286 0.286 0.702 0.361 1.057 0.229 0.13-0.049 0.252-0.124 0.357-0.229 0-0 0-0 0-0l9.708-9.708 9.708 9.708c0 0 0 0 0 0 0.105 0.105 0.227 0.18 0.357 0.229 0.356 0.133 0.771 0.057 1.057-0.229l4.586-4.586c0.286-0.286 0.362-0.702 0.229-1.057-0.049-0.13-0.124-0.252-0.229-0.357z"></path>
</symbol>
</svg>

<svg xmlns="http://www.w3.org/2000/svg" width="32" height="32"><path d="M31.708 25.708L22 16l9.708-9.708a1 1 0 0 0 0-1.414L27.122.292a1 1 0 0 0-1.414-.001L16 9.999 6.292.291a.998.998 0 0 0-1.414.001L.292 4.878a1 1 0 0 0 0 1.414L10 16 .292 25.708a.999.999 0 0 0 0 1.414l4.586 4.586a1 1 0 0 0 1.414 0L16 22l9.708 9.708a1 1 0 0 0 1.414 0l4.586-4.586a.999.999 0 0 0 0-1.414z"/></svg>
